X: 2
T:Highland Mary, Oddington
M:4/4
L:1/8
A:Oddington
P:A(A2B2)3
K:G
P:A
|:D2|G2AG F2D2   |G2AB c2Bc   |d2Bd c2BA|1G2FE F2 :|2G2F2 G2||
P:B
B2|d2d2 d2(3edB|c2c2 c2Bc   |d2d2 dcBA| G2FF D2D2|
G2AG F2D2   |G2AB c2(3AcA|d2ed c2BA| G2F2 G2  ||
